X: 179
T: Polska efter Lomjansgutten
O: Värmland
Z:Transcribed to abcby Jon Magnusson 080429
R: Polska
M: 3/4
L: 1/8
K: Dm
(3:2:4 efd2^c2 A-|(3:2:4 A2GEF2 EF|(3:2:5 D2EFDF E>^C|(3:2:5 E2FEFE ^C>E|(3 D2d2^c2 A>c|
(3:2:4 efd2^c2 A-|(3:2:4 A2GEF2 EF|(3:2:5 D2EFDF E>^C|D2 D4:|
(3 A=B^c d>e f>a|(3 geg (3fdf e>^c|(3 A=B^c d>e f>a|(3 gfg a4|
(3 A=B^c d>e f>a|(3 geg (3fdf e>a|(3 geg (3 fdf e>d| (3 ^cBc d4:|
(:musicend:)

(:music:)
